assets/linkedin.svg

<svg fill="#FFFFFF" xmlns="http://www.w3.org/2000/svg"  viewBox="0 0 32 32" width="24px" height="24px"><path d="M 8.6425781 4 C 7.1835781 4 6 5.181625 6 6.640625 C 6 8.099625 7.182625 9.3085938 8.640625 9.3085938 C 10.098625 9.3085938 11.283203 8.099625 11.283203 6.640625 C 11.283203 5.182625 10.101578 4 8.6425781 4 z M 21.535156 11 C 19.316156 11 18.0465 12.160453 17.4375 13.314453 L 17.373047 13.314453 L 17.373047 11.310547 L 13 11.310547 L 13 26 L 17.556641 26 L 17.556641 18.728516 C 17.556641 16.812516 17.701266 14.960938 20.072266 14.960938 C 22.409266 14.960937 22.443359 17.145609 22.443359 18.849609 L 22.443359 26 L 26.994141 26 L 27 26 L 27 17.931641 C 27 13.983641 26.151156 11 21.535156 11 z M 6.3632812 11.310547 L 6.3632812 26 L 10.923828 26 L 10.923828 11.310547 L 6.3632812 11.310547 z"/></svg>

<svg xmlns="http://www.w3.org/2000/svg" xmlns:xlink="http://www.w3.org/1999/xlink" viewBox="0,0,256,256" width="16px" height="16px"><g fill="#feb52b" fill-rule="nonzero" stroke="none" stroke-width="1" stroke-linecap="butt" stroke-linejoin="miter" stroke-miterlimit="10" stroke-dasharray="" stroke-dashoffset="0" font-family="none" font-weight="none" font-size="none" text-anchor="none" style="mix-blend-mode: normal"><g transform="scale(8,8)"><path d="M8.64258,4c-1.459,0 -2.64258,1.18163 -2.64258,2.64063c0,1.459 1.18262,2.66797 2.64063,2.66797c1.458,0 2.64258,-1.20897 2.64258,-2.66797c0,-1.458 -1.18163,-2.64062 -2.64062,-2.64062zM21.53516,11c-2.219,0 -3.48866,1.16045 -4.09766,2.31445h-0.06445v-2.00391h-4.37305v14.68945h4.55664v-7.27148c0,-1.916 0.14463,-3.76758 2.51563,-3.76758c2.337,0 2.37109,2.18467 2.37109,3.88867v7.15039h4.55078h0.00586v-8.06836c0,-3.948 -0.84884,-6.93164 -5.46484,-6.93164zM6.36328,11.31055v14.68945h4.56055v-14.68945z"></path></g></g></svg>
